public/marquee_icons/2.svg

<svg width="118" height="48" viewBox="0 0 118 48" fill="none" xmlns="http://www.w3.org/2000/svg">
<path d="M47.8373 13.1751C48.0859 13.269 49.5826 15.0725 49.8458 15.3752L52.8305 18.7804L56.6919 23.1927C57.451 24.0553 58.2721 24.9586 59.0123 25.8292C59.2141 25.6742 59.6437 25.1588 59.8337 24.9405L61.1994 23.3698L67.2341 16.507C67.76 15.9108 68.2826 15.3115 68.8015 14.7092C69.1702 14.2784 69.8043 13.4827 70.2158 13.1683C70.6482 13.5575 71.0754 14.1354 71.4666 14.5769L75.5873 19.3032L81.3614 25.9258C82.2697 26.9672 83.1908 27.9974 84.1028 29.0353C84.2901 29.2485 84.7917 29.6887 84.4951 29.9291C83.2608 30.9298 81.2282 30.7225 79.9884 29.8359C79.3977 29.4138 78.8972 28.74 78.4217 28.1948L76.5673 26.0716L70.3037 18.92C70.0321 18.6366 69.5257 18.0409 69.2998 17.7281C68.8066 18.3282 68.0423 19.1283 67.502 19.7441L62.5613 25.3333L60.1526 28.0636C59.8674 28.3837 59.32 29.0784 58.9985 29.2853L51.5911 20.8924L49.8682 18.9453C49.6157 18.6628 49.0184 18.0269 48.8469 17.7395C48.4736 18.0408 48.1293 18.4728 47.8086 18.8379C47.3171 19.3927 46.8307 19.952 46.3495 20.5157C44.7126 22.4299 43.0053 24.3033 41.3575 26.2024L39.4927 28.3633C39.1375 28.7692 38.859 29.1143 38.4548 29.4934C37.2751 30.5998 35.3978 30.9281 33.9467 30.1828C33.7856 30.1001 33.4687 29.917 33.4136 29.73C33.5183 29.4932 34.862 28.0379 35.1195 27.7393L44.1253 17.4458L46.5881 14.6039C46.9566 14.1771 47.4548 13.5521 47.8373 13.1751Z" fill="white" fill-opacity="0.69"/>
<path d="M67.2102 9.70496C67.5186 10.0053 69.634 12.3137 69.5718 12.4746C69.4426 12.8108 67.551 14.8858 67.218 15.2634C66.6188 15.9914 65.9066 16.7766 65.2808 17.4917L61.4807 21.8214C60.8355 22.5579 60.2105 23.3129 59.5671 24.0512C59.3947 24.249 59.239 24.4418 59.029 24.6026C58.5005 24.1198 57.4317 22.816 56.9315 22.2405L53.0306 17.769L50.038 14.3457C49.6236 13.8737 48.8011 12.9994 48.4614 12.4998C48.5982 12.2531 50.5989 9.90678 50.8027 9.74956C51.0605 9.75214 51.8986 10.8242 52.1405 11.1029L54.0232 13.2616C55.6626 15.138 57.4201 17.0885 59.0177 18.9915C59.2618 18.7704 59.5455 18.4125 59.7688 18.1533L60.9939 16.7419L65.5661 11.5123C65.9987 11.0257 66.7376 10.063 67.2102 9.70496Z" fill="white" fill-opacity="0.69"/>
<path d="M58.9784 0.00503246C59.2599 -0.0563081 59.5517 0.459574 59.7233 0.656388L61.498 2.68665L64.4271 6.03116C65.084 6.77727 65.7409 7.52648 66.3791 8.28933C66.4922 8.42458 66.5274 8.53535 66.5783 8.70372C66.3688 9.07129 64.5392 11.1301 64.2123 11.4452C63.7617 11.0894 62.8279 9.89583 62.3907 9.39864L60.4144 7.14058C59.9995 6.67276 59.4211 6.06785 59.0621 5.58035C58.7433 5.74974 57.3381 7.5833 56.8975 8.01145C56.2508 8.63994 55.4633 9.75771 54.7932 10.4314C54.5293 10.6967 54.2201 11.2428 53.8993 11.4222C53.6602 11.3587 51.5004 8.90193 51.4375 8.5854C51.6191 8.29423 51.8414 8.12358 52.0162 7.87208C52.3446 7.39973 52.7031 7.05623 53.0749 6.63699L55.1603 4.24743C55.2947 4.09261 55.5116 3.7618 55.6413 3.6458C56.7005 2.69835 57.8344 0.75796 58.9784 0.00503246Z" fill="white" fill-opacity="0.69"/>
<path d="M69.2636 18.8466C69.5407 18.899 71.0654 20.799 71.3679 21.141C73.6912 23.7217 75.9762 26.3364 78.2225 28.9843C78.4014 29.1965 78.5526 29.3697 78.7514 29.564C79.037 29.8433 79.3678 30.0739 79.593 30.4023C79.2287 30.4476 78.7889 30.4161 78.4161 30.4007C77.3334 30.3107 76.4097 29.9543 75.6582 29.155C74.5023 27.9254 73.4093 26.5912 72.2964 25.3246L69.4226 22.0492C69.2058 21.7979 67.994 20.5061 68.0204 20.2442C68.0532 19.914 68.9559 19.0851 69.2636 18.8466Z" fill="white" fill-opacity="0.69"/>
<path d="M48.7925 18.8448C49.0739 18.9268 49.9545 19.9682 49.9828 20.2738C49.7916 20.7584 47.0007 23.7789 46.4873 24.3663L42.9007 28.51C41.8902 29.6595 41.2882 30.2528 39.6807 30.3561C39.4371 30.3852 38.754 30.4791 38.5666 30.369L38.5654 30.3004C38.7794 30.023 39.1238 29.8105 39.311 29.5668C39.7953 28.9363 40.3265 28.386 40.8431 27.7913L46.218 21.6367C46.7935 20.9816 48.179 19.2703 48.7925 18.8448Z" fill="white" fill-opacity="0.69"/>
<path d="M59.0163 6.76013C59.1173 6.81316 60.8921 8.83143 61.1072 9.09492C61.5231 9.60437 63.4414 11.6369 63.5867 12.0647C63.5249 12.3026 62.5177 13.4893 62.3098 13.5283C61.9398 13.3981 59.5898 10.4349 59.088 9.9563L59.0613 9.93116C58.4776 10.3999 56.1244 13.4925 55.7684 13.5331C55.4617 13.3848 54.59 12.3402 54.4341 12.0226C54.8166 11.5041 55.5408 10.7643 55.976 10.2482C56.9626 9.07781 57.9966 7.90352 59.0163 6.76013Z" fill="white" fill-opacity="0.69"/>
<path d="M7.16105 43.4011L5.85364 39.672L4.54623 43.4011H7.16105ZM7.93361 45.6148H3.77367L3.1051 47.561H0L4.26395 36.3589H7.44333L11.7073 47.561H8.60217L7.93361 45.6148Z" fill="white" fill-opacity="0.69"/>
<path d="M20.6279 40.1028C19.9544 39.2807 19.1224 38.8697 18.132 38.8697C17.6962 38.8697 17.2901 38.9489 16.9137 39.1074C16.5472 39.2659 16.2303 39.4838 15.9629 39.7611C15.6954 40.0285 15.4825 40.3504 15.324 40.7268C15.1754 41.1032 15.1012 41.5093 15.1012 41.9451C15.1012 42.3908 15.1754 42.8018 15.324 43.1782C15.4825 43.5546 15.6954 43.8814 15.9629 44.1588C16.2402 44.4361 16.5621 44.654 16.9286 44.8125C17.295 44.971 17.6912 45.0502 18.1171 45.0502C19.0482 45.0502 19.8851 44.654 20.6279 43.8616V47.3084L20.3308 47.4124C19.8851 47.5709 19.4691 47.6848 19.0828 47.7542C18.6965 47.8334 18.3152 47.873 17.9388 47.873C17.1663 47.873 16.4234 47.7294 15.7103 47.4422C15.0071 47.145 14.3831 46.734 13.8383 46.209C13.3035 45.6742 12.8726 45.0452 12.5458 44.3222C12.2189 43.5893 12.0555 42.7919 12.0555 41.9302C12.0555 41.0685 12.214 40.2811 12.5309 39.568C12.8578 38.8449 13.2886 38.2259 13.8235 37.7109C14.3682 37.1859 14.9972 36.7798 15.7103 36.4926C16.4234 36.1954 17.1712 36.0469 17.9537 36.0469C18.3994 36.0469 18.8352 36.0964 19.2611 36.1954C19.6969 36.2846 20.1525 36.4282 20.6279 36.6263V40.1028Z" fill="white" fill-opacity="0.69"/>
<path d="M26.7192 38.8251V47.561H23.8072V38.8251H21.4153V36.3589H29.1112V38.8251H26.7192Z" fill="white" fill-opacity="0.69"/>
<path d="M33.3183 36.3589V42.4502C33.3183 42.7771 33.3282 43.1138 33.3481 43.4605C33.3778 43.7973 33.452 44.1043 33.5709 44.3816C33.6997 44.659 33.8978 44.8868 34.1652 45.065C34.4326 45.2334 34.809 45.3176 35.2943 45.3176C35.7796 45.3176 36.1511 45.2334 36.4086 45.065C36.676 44.8868 36.8741 44.659 37.0029 44.3816C37.1316 44.1043 37.2059 43.7973 37.2257 43.4605C37.2554 43.1138 37.2703 42.7771 37.2703 42.4502V36.3589H40.1674V42.8514C40.1674 44.5946 39.7663 45.8673 38.964 46.6696C38.1716 47.4719 36.9484 47.873 35.2943 47.873C33.6402 47.873 32.4121 47.4719 31.6098 46.6696C30.8075 45.8673 30.4064 44.5946 30.4064 42.8514V36.3589H33.3183Z" fill="white" fill-opacity="0.69"/>
<path d="M45.4331 41.3657H45.9828C46.5573 41.3657 46.9981 41.2468 47.3051 41.0091C47.6122 40.7714 47.7657 40.4297 47.7657 39.984C47.7657 39.5383 47.6122 39.1965 47.3051 38.9588C46.9981 38.7211 46.5573 38.6023 45.9828 38.6023H45.4331V41.3657ZM51.8365 47.561H48.2114L45.4331 43.2525V47.561H42.5212V36.3589H47.0525C47.6765 36.3589 48.2213 36.453 48.6868 36.6412C49.1523 36.8194 49.5337 37.0671 49.8308 37.384C50.1378 37.7009 50.3656 38.0674 50.5142 38.4834C50.6727 38.8994 50.7519 39.3451 50.7519 39.8205C50.7519 40.6723 50.5439 41.3657 50.1279 41.9005C49.7218 42.4255 49.1177 42.782 48.3154 42.9702L51.8365 47.561Z" fill="white" fill-opacity="0.69"/>
<path d="M59.4282 38.8251H55.9665V40.6971H59.235V43.1634H55.9665V45.0948H59.4282V47.561H53.0545V36.3589H59.4282V38.8251Z" fill="white" fill-opacity="0.69"/>
<path d="M66.0715 47.561L67.9732 36.3589H70.8555L73.0989 42.3314L75.3274 36.3589H78.2097L80.1113 47.561H77.2142L76.2485 41.1131L73.604 47.561H72.4452L69.9343 41.1131L68.9686 47.561H66.0715Z" fill="white" fill-opacity="0.69"/>
<path d="M88.3296 38.8251H84.8679V40.6971H88.1364V43.1634H84.8679V45.0948H88.3296V47.561H81.9559V36.3589H88.3296V38.8251Z" fill="white" fill-opacity="0.69"/>
<path d="M93.341 45.0948H94.0096C94.5147 45.0948 94.9654 45.0155 95.3615 44.857C95.7577 44.6986 96.0895 44.4807 96.357 44.2033C96.6343 43.926 96.8423 43.5992 96.9809 43.2228C97.1295 42.8365 97.2038 42.4156 97.2038 41.9599C97.2038 41.5142 97.1295 41.0982 96.9809 40.712C96.8324 40.3257 96.6194 39.9939 96.3421 39.7165C96.0747 39.4392 95.7429 39.2213 95.3467 39.0628C94.9505 38.9044 94.5048 38.8251 94.0096 38.8251H93.341V45.0948ZM90.429 36.3589H94.7375C95.5002 36.3589 96.2133 36.5124 96.877 36.8194C97.5505 37.1265 98.1348 37.5375 98.6301 38.0526C99.1352 38.5577 99.5314 39.152 99.8186 39.8354C100.106 40.5089 100.249 41.2171 100.249 41.9599C100.249 42.6929 100.106 43.4011 99.8186 44.0845C99.5413 44.758 99.1501 45.3523 98.6449 45.8673C98.1497 46.3824 97.5653 46.7934 96.8918 47.1004C96.2282 47.4075 95.5101 47.561 94.7375 47.561H90.429V36.3589Z" fill="white" fill-opacity="0.69"/>
<path d="M105.021 36.3589V47.561H102.109V36.3589H105.021Z" fill="white" fill-opacity="0.69"/>
<path d="M113.452 43.4011L112.145 39.672L110.837 43.4011H113.452ZM114.225 45.6148H110.065L109.396 47.561H106.291L110.555 36.3589H113.734L117.998 47.561H114.893L114.225 45.6148Z" fill="white" fill-opacity="0.69"/>
</svg>

<svg xmlns="http://www.w3.org/2000/svg" width="118" height="48" fill="none"><path fill="#fff" fill-opacity=".69" d="M47.837 13.175c.249.094 1.746 1.897 2.009 2.2l2.985 3.405 3.86 4.413c.76.862 1.581 1.766 2.321 2.636.202-.155.632-.67.822-.889l1.365-1.57 6.035-6.863q.79-.895 1.568-1.798c.368-.43 1.002-1.226 1.414-1.54.432.388.86.966 1.25 1.408l4.121 4.726 5.774 6.623c.909 1.041 1.83 2.071 2.742 3.11.187.212.689.653.392.893-1.234 1-3.267.794-4.507-.093-.59-.422-1.09-1.096-1.566-1.641l-1.855-2.123-6.263-7.152a15 15 0 0 1-1.004-1.192c-.493.6-1.258 1.4-1.798 2.016l-4.94 5.59-2.41 2.73c-.285.32-.832 1.014-1.154 1.221l-7.407-8.393-1.723-1.947c-.252-.282-.85-.918-1.021-1.206-.373.302-.718.734-1.038 1.099q-.737.832-1.46 1.678c-1.636 1.914-3.344 3.787-4.991 5.686l-1.865 2.161c-.355.406-.634.751-1.038 1.13-1.18 1.107-3.057 1.435-4.508.69-.161-.083-.478-.266-.533-.453.104-.237 1.448-1.692 1.706-1.99l9.005-10.294 2.463-2.842c.369-.427.867-1.052 1.25-1.429"/><path fill="#fff" fill-opacity=".69" d="M67.21 9.705c.309.3 2.424 2.609 2.362 2.77-.13.336-2.021 2.41-2.354 2.788-.6.728-1.311 1.514-1.937 2.229l-3.8 4.33c-.645.736-1.27 1.49-1.914 2.23-.172.197-.328.39-.538.55-.529-.482-1.597-1.786-2.098-2.361l-3.9-4.472-2.993-3.423c-.414-.472-1.237-1.347-1.577-1.846.137-.247 2.138-2.593 2.342-2.75.258.002 1.096 1.074 1.338 1.353l1.882 2.159c1.64 1.876 3.397 3.826 4.995 5.73.244-.222.527-.58.75-.839l1.226-1.411 4.572-5.23c.433-.486 1.172-1.449 1.644-1.807"/><path fill="#fff" fill-opacity=".69" d="M58.978.005c.282-.061.574.455.745.651l1.775 2.03 2.93 3.345c.656.746 1.313 1.495 1.951 2.258.113.136.148.246.2.415-.21.367-2.04 2.426-2.367 2.741-.45-.356-1.384-1.55-1.821-2.046L60.414 7.14c-.415-.468-.993-1.073-1.352-1.56-.319.169-1.724 2.002-2.164 2.43-.647.629-1.435 1.747-2.105 2.42-.264.266-.573.812-.894.991-.239-.063-2.399-2.52-2.462-2.837.182-.29.404-.461.58-.713.328-.472.686-.816 1.058-1.235l2.085-2.39c.135-.154.352-.485.481-.601 1.06-.948 2.193-2.888 3.337-3.641M69.264 18.847c.277.052 1.801 1.952 2.104 2.294a354 354 0 0 1 6.855 7.843c.178.212.33.386.528.58.286.28.617.51.842.838-.364.046-.804.014-1.177-.001-1.083-.09-2.006-.447-2.758-1.246-1.156-1.23-2.249-2.564-3.362-3.83l-2.873-3.276c-.217-.251-1.429-1.543-1.403-1.805.033-.33.936-1.159 1.244-1.397M48.793 18.845c.28.082 1.162 1.123 1.19 1.429-.191.484-2.982 3.505-3.496 4.092l-3.586 4.144c-1.01 1.15-1.613 1.743-3.22 1.846-.244.03-.927.123-1.114.013l-.002-.069c.214-.277.559-.49.746-.733.484-.63 1.016-1.181 1.532-1.776l5.375-6.154c.575-.655 1.961-2.367 2.574-2.792"/><path fill="#fff" fill-opacity=".69" d="M59.016 6.76c.101.053 1.876 2.071 2.091 2.335.416.51 2.334 2.542 2.48 2.97-.062.238-1.07 1.424-1.277 1.463-.37-.13-2.72-3.093-3.222-3.572l-.027-.025c-.583.469-2.937 3.562-3.293 3.602-.306-.148-1.178-1.193-1.334-1.51.383-.519 1.107-1.259 1.542-1.775.987-1.17 2.02-2.344 3.04-3.488M7.161 43.401l-1.307-3.729-1.308 3.73zm.773 2.214h-4.16l-.669 1.946H0l4.264-11.202h3.18l4.263 11.202H8.602zM20.628 40.103q-1.011-1.233-2.496-1.233-.654 0-1.218.237a2.9 2.9 0 0 0-.951.654q-.401.401-.639.966a3.3 3.3 0 0 0-.223 1.218q0 .669.223 1.233.238.565.639.98.416.417.966.654.549.238 1.188.238 1.397 0 2.51-1.188v3.446l-.296.104a8 8 0 0 1-1.248.342q-.58.12-1.144.119a5.9 5.9 0 0 1-2.229-.43 6.1 6.1 0 0 1-1.872-1.234 6.3 6.3 0 0 1-1.292-1.887 5.8 5.8 0 0 1-.49-2.392q0-1.292.475-2.362a5.95 5.95 0 0 1 1.292-1.857 5.8 5.8 0 0 1 1.887-1.218 5.8 5.8 0 0 1 2.244-.446q.668 0 1.307.148.654.134 1.367.431zM26.72 38.825v8.736h-2.913v-8.736h-2.392V36.36h7.696v2.466zM33.318 36.359v6.091q0 .49.03 1.01.045.505.223.922.193.416.594.683.401.252 1.13.253.727 0 1.114-.253.4-.267.594-.683t.223-.921q.044-.52.044-1.01v-6.092h2.897v6.492q0 2.615-1.203 3.819-1.189 1.203-3.67 1.203T31.61 46.67t-1.204-3.819V36.36zM45.433 41.366h.55q.861 0 1.322-.357.46-.357.46-1.025 0-.67-.46-1.025-.46-.357-1.322-.357h-.55zm6.404 6.195H48.21l-2.778-4.309v4.309h-2.912V36.359h4.532q.935 0 1.634.282.698.267 1.144.743.46.475.683 1.1.238.623.238 1.337 0 1.277-.624 2.08-.609.786-1.813 1.07zM59.428 38.825h-3.461v1.872h3.268v2.466h-3.268v1.932h3.461v2.466h-6.373V36.359h6.373zM66.072 47.561l1.901-11.202h2.883l2.243 5.972 2.228-5.972h2.883L80.11 47.56h-2.897l-.965-6.448-2.645 6.448h-1.159l-2.51-6.448-.966 6.448zM88.33 38.825h-3.462v1.872h3.268v2.466h-3.268v1.932h3.462v2.466h-6.374V36.359h6.374zM93.341 45.095h.669q.757 0 1.352-.238a2.8 2.8 0 0 0 1.619-1.634q.223-.579.223-1.263 0-.669-.223-1.248a2.8 2.8 0 0 0-.639-.995 2.8 2.8 0 0 0-.995-.654 3.6 3.6 0 0 0-1.337-.238h-.669zm-2.912-8.736h4.308q1.144 0 2.14.46a5.7 5.7 0 0 1 1.753 1.234q.757.757 1.189 1.782.43 1.01.43 2.125 0 1.1-.43 2.124a5.5 5.5 0 0 1-1.174 1.783 5.7 5.7 0 0 1-1.753 1.233 5.1 5.1 0 0 1-2.154.461h-4.309zM105.021 36.359V47.56h-2.912V36.359zM113.452 43.401l-1.307-3.729-1.308 3.73zm.773 2.214h-4.16l-.669 1.946h-3.105l4.264-11.202h3.179l4.264 11.202h-3.105z"/></svg>
